src/icons/health-checks.svg

<svg width="64" height="65" viewBox="0 0 64 65" xmlns="http://www.w3.org/2000/svg"><path d="M43.12 9.04506C39.0237 8.97207 35.0513 10.451 32 13.1851C28.9415 10.463 24.974 8.98585 20.88 9.04506C16.403 9.05036 12.1111 10.8319 8.94635 13.9985C5.7816 17.1651 4.00265 21.4581 4 25.9351C4 30.1551 6.28 34.7651 8.54 37.4451C13.4 43.2351 30 57.4651 30.7 58.0651H33.3C34 57.4651 50.59 43.2351 55.46 37.4451C57.72 34.7651 60 30.1551 60 25.9351C59.9974 21.4581 58.2184 17.1651 55.0536 13.9985C51.8889 10.8319 47.597 9.05036 43.12 9.04506ZM32 53.9051C28.72 51.0651 20 43.4351 14.69 38.1651H19.87L21.62 37.1651L26.09 29.0451L31.7 41.3751H35.34L39.51 32.0951L42.33 36.3351L44 37.2251H50.24C45.11 42.4751 35.49 50.8851 32 53.9051ZM53.59 33.2151H45.07L40.83 26.8551L37.34 27.1451L33.51 35.6851L28.09 23.6851L24.51 23.5951L18.69 34.1651H11.05C9.25036 31.779 8.18994 28.9176 8 25.9351C8.00264 22.519 9.36017 19.2434 11.7748 16.8269C14.1894 14.4104 17.4639 13.0504 20.88 13.0451C22.6988 12.9953 24.5055 13.3561 26.1658 14.1005C27.8261 14.8449 29.2972 15.9539 30.47 17.3451H33.52C34.6994 15.9578 36.1727 14.8504 37.8332 14.1032C39.4936 13.356 41.2996 12.9877 43.12 13.0251C46.5396 13.0304 49.8171 14.3932 52.2323 16.814C54.6475 19.2348 56.0027 22.5155 56 25.9351C55.853 28.5319 55.0216 31.0435 53.59 33.2151Z"/></svg>

<svg xmlns="http://www.w3.org/2000/svg" width="64" height="65" viewBox="0 0 64 65"><path d="M43.12 9.045A16.23 16.23 0 0 0 32 13.185a16.37 16.37 0 0 0-11.12-4.14A16.9 16.9 0 0 0 4 25.935c0 4.22 2.28 8.83 4.54 11.51 4.86 5.79 21.46 20.02 22.16 20.62h2.6c.7-.6 17.29-14.83 22.16-20.62 2.26-2.68 4.54-7.29 4.54-11.51a16.9 16.9 0 0 0-16.88-16.89M32 53.905c-3.28-2.84-12-10.47-17.31-15.74h5.18l1.75-1 4.47-8.12 5.61 12.33h3.64l4.17-9.28 2.82 4.24 1.67.89h6.24c-5.13 5.25-14.75 13.66-18.24 16.68m21.59-20.69h-8.52l-4.24-6.36-3.49.29-3.83 8.54-5.42-12-3.58-.09-5.82 10.57h-7.64A15.3 15.3 0 0 1 8 25.935a12.9 12.9 0 0 1 12.88-12.89 12.11 12.11 0 0 1 9.59 4.3h3.05a12.27 12.27 0 0 1 9.6-4.32A12.9 12.9 0 0 1 56 25.935a14.74 14.74 0 0 1-2.41 7.28"/></svg>
